CM2T1/251/aimg/hombre.svg

<svg clip-rule="evenodd" fill-rule="evenodd" stroke-linecap="round" stroke-linejoin="round" viewBox="0 0 200 200" xmlns="http://www.w3.org/2000/svg"><g stroke="#000" stroke-linecap="butt" stroke-linejoin="round"><path d="m99.088 71.2713c.1983.142-.5241 2.8449-.5782 3.1482-.411 2.3012-.689 4.4944-.8995 6.8104-.0106.1164-.3962 1.5313-.3855 1.542.5708.5708 2.1066.4884 2.8272.3855.187-.0268 1.575-.1614 1.67-.257.212-.212.6-7.6686.643-8.0954.019-.1975.703-3.632.514-3.7264-.102-.0508-4.1906-.0935-3.791.1927z" fill="#b79516"/><path d="m89.7679 29.837c.1325-.4335-.5212.7429-.7544 1.1316-.5029.8382-1.0058 1.6764-1.5087 2.5146-1.2356 2.0593-2.3694 3.9391-3.3947 6.1607-1.1525 2.497-3.2585 4.2866-4.5263 6.6636-.5383 1.0094-.8806 2.0009-1.6344 2.8918-1.7542 2.0731-4.7972 4.5175-5.2806 7.418-.2212 1.3272 2.1899 1.1228 2.8917 1.0058 2.6217-.437 4.8792-.8836 7.5437-.5029.4047.0578 1.8842-.1293 2.1374.3772.1922.3842-.6413 6.3751-.7543 7.1665-1.0603 7.4221 3.858 11.9105 11.0641 11.1899 4.0686-.4069 12.8406-2.6701 15.9676-5.4064 1.32-1.155 2.937-2.7654 3.898-4.2747 1.852-2.9116 2.058-7.006 2.388-10.3098.603-6.0305 1.16-12.3761-1.131-18.1049-2.128-5.3207-11.117-12.1957-16.8478-12.1957-2.6663 0-4.9306 1.4244-7.1666 2.766-.6369.3822-1.5 1.1047-2.2631 1.2573-.3313.0662-1.0058-.2122-1.0058.1257 0 .1325.3384.2525.3772.1257z" fill="#b79516"/><path d="m85.4672 32.2079c-.3047.1346-.438-.5097-.7067-.7067-.2979-.2185-.5376.3456-.257.514 2.54 1.524 6.2825-.3842 8.9949 1.2849 2.5047 1.5414-.6001 2.8688 0 4.369.4447 1.1118 3.3693.3283 4.3689.8995.85.4856-.8157 2.1676-.1285 3.0839.6802.907 3.0462.765 3.2122 1.9275.153 1.0692-1.3449 2.7695-.771 3.7264.463.7719 1.591.5629 2.185 1.1565.384.3839-.457.8741-.129 1.285.415.518 1.535.499 1.799 1.028.855 1.71-2.66 2.5825 1.157 3.8549.782.2608 1.392-.7296 1.67-1.285.461-.9211.358-1.9234.9-2.8269.528-.8801 3.654-4.5293 4.112-2.6985.242.9716-.522 3.1133-.771 4.1119-.525 2.0984.565 4.7545.128 6.9389-.301 1.5043-.836 2.9641-1.028 4.4975-.115.9221.221 1.7716.129 2.6984-.125 1.2416-2.026 2.8154-1.285 4.112 2.941 5.148 11.335-.2373 13.749-3.341 5.506-7.0792 5.86-18.746 3.469-27.1131-.497-1.7422-1.454-3.2394-2.184-4.8829-.699-1.5727-1.267-3.3601-2.313-4.7544-.927-1.2363-2.193-1.856-3.341-2.827-2.442-2.0666-4.767-4.7329-7.581-6.2964-4.128-2.2933-8.497-3.3073-13.1072-3.7264-3.1147-.2832-7.4117-1.8127-10.5368-.771-3.4252 1.1417-8.3024 7.1388-7.3244 11.0508.5236 2.0947 1.6327 2.6154 3.3409 3.4695.4683.2341 3.0354.8734 2.2487 1.2207z" fill="#61330d"/><path d="m86.688 58.7427c-.9123 0-1.3411-1.1377-2.4415-.7709-.5801.1933-.8199 1.0377-1.4135 1.1564-.8228.1646-1.6201-.095-2.4414.257-.4729.2027-2.2819 2.6323-2.056 3.084 1.3815 2.7631 10.8105 2.1009 11.4363-1.028.5251-2.6255-5.1785-4.1183-6.5534-2.056" fill="#61330d"/><path d="m81.5069 173.215c-1.1251.91-3.0469 2.354-4.4487 2.704-1.9632.491-7.3362.568-7.8508 3.141-.3369 1.684-.6237 5.551 1.0468 6.804 1.2529.939 3.4926.348 4.8849.348 4.539 0 9.0881-1.919 13.7825-1.919 1.5959 0 9.3317 1.311 10.1187.524 2.8237-2.824 1.4357-6.04.8723-9.421-.1171-.703.077-1.992-.5234-2.443-1.0027-.752-3.1995-.349-4.3615-.349-3.547 0-11.0365-1.399-13.5208.611z" fill="#360b00"/><path d="m107.218 171.367c.743.902 3.216.327 4.408.221 2.971-.262 5.458-.586 8.207-1.477 4.231-1.37 4.612 2.699 7.448 3.25 4.681.91 8.896-2.11 13.528.591 2.171 1.266 2.764 2.445 2.432 5.022-.358 2.788-3.899 3.835-6.384 4.136-1.827.222-3.423 1.31-5.32 1.478-2.635.232-5.714.764-8.36.443-1.126-.137-2.495-.335-3.648-.148-2.039.33-5.804 1.726-7.751.591-.826-.482-.758-2.055-.912-2.807-.532-2.583-2.738-4.44-3.192-7.09-.252-1.469-.608-3.071-.608-4.579 0-.133.066.265.152.369z" fill="#360b00"/><path d="m79.9271 133.52c-.193 9.844 1.0899 20.036-.0664 29.865-.3354 2.851-.127 5.8-.5309 8.627-.0432.303-.3974 1.594-.1327 1.858.0154.016 5.218-.53 5.5747-.53 3.9603 0 8.0007-.365 11.9459-.133 1.406.082 4.3443.814 5.7073.133.528-.264.065-3.234.133-3.85.26-2.34.265-4.801.265-7.167 0-.82.162-1.849 0-2.655-.038-.194-.265-.531-.265-.531s.202.613.265.929c.262 1.309.537 2.673.93 3.982.461 1.538.87 7.507 1.858 8.495 1.541 1.542 10.894-1.34 12.477-1.593 2.136-.342 4.195-.796 6.371-.796.227 0 2.137.37 2.256.133.451-.901.133-2.758.133-3.717 0-4.031-.282-7.94-.664-11.946-.469-4.929-1.358-10.579-2.92-15.264-.573-1.719-1.665-3.282-2.389-4.911-.559-1.257-.962-3.352-1.991-4.38-.721-.721-5.352-.531-6.371-.531-5.878 0-11.728.893-17.5208 1.858-3.3442.557-6.7709.775-10.0876 1.327-1.9028.318-4.9345-1.397-4.9775.797z" fill="#052b44"/><path d="m64.2868 117.782c-2.2477.881-5.4027 4.911-4.1766 7.448.8162 1.689 3.0144 1.357 4.2544.757.3762-.181.8532-.569 1.1219-.867.1657-.184.7435-.529.4971-.551-.3655-.033-1.3497 1.125-1.6123 1.344-.4863.406-1.3914.136-1.8345.505-.4077.34-1.742 4.199-1.5435 4.705.7296 1.862 7.7668 3.843 9.3897 2.489 2.8294-2.36 3.1317-4.959 3.4503-8.483.0854-.943.7533-5.265.5282-5.84" fill="#b79516"/><path d="m134.593 116.177c1.82.713 4.373 3.976 3.381 6.029-.661 1.367-2.44 1.098-3.444.613-.304-.147-.69-.461-.908-.702-.134-.149-.601-.428-.402-.446.296-.027 1.093.911 1.305 1.088.394.328 1.126.11 1.485.409.33.275 1.41 3.398 1.249 3.808-.59 1.507-6.286 3.11-7.6 2.015-2.29-1.911-2.535-4.015-2.792-6.866-.07-.764-.61-4.263-.428-4.728" fill="#b79516"/><path d="m96.9832 81.356c1.4693.134 1.7589.5773 3.3188.2654.84-.168 1.213-1.0429 2.123-1.1946 3.599-.5997 8.389-.4778 11.813.6637 5.637 1.8788 8.497 5.3128 11.15 10.6186.649 1.2986.759 3.4019 1.593 4.5129.201.2682.811.4135 1.062.6637.883.8833 1.092 2.6956 1.858 3.7163 2.536 3.382 3.739 7.888 5.309 11.813.347.869 1.013 1.878 1.195 2.788.437 2.186-8.75 5.283-9.955 4.38-.846-.634-1.477-1.875-2.257-2.655-.591-.591-1.532-1.002-2.123-1.593-2.004-2.003-3.629-4.424-5.575-6.371-.838-.837-1.622-1.863-2.257-2.92-.072-.12-.29-.929-.398-.929-.172 0 .585 2.287.664 2.522.47 1.41.6 2.862 1.062 4.247 1.507 4.521 3.206 9.149 3.982 13.805.164.987 1.063 3.493.531 4.38-.89 1.483-8.222 3.511-9.823 3.982-9.591 2.821-23.4623 2.189-32.9172-1.593-1.408-.563-.9553-4.993-.7964-6.106.8058-5.64 3.0672-11.59 4.9111-17.122.6357-1.907 1.2266-3.813 1.8583-5.708.1866-.56.9885-1.725.3982-1.725-1.0567 0-2.1263 3.323-2.5219 4.114-1.6059 3.212-2.8545 6.706-3.982 10.088-.3638 1.091-.3936 3.579-1.1946 4.38-.6399.64-2.4615.161-3.1856 0-2.6809-.595-5.3554-.947-7.9639-1.991-.4764-.19-3.1856-.247-3.1856-.929 0-.929.8765-1.939 1.1946-2.787.7179-1.915 1.2689-3.782 1.991-5.708 1.0317-2.751 3.0032-5.276 3.8492-8.096 1.5683-5.2279 3.4241-14.0804 8.4949-17.1228 1.9294-1.1577 4.4365-2.6129 6.6366-3.0529 1.2834-.2567 2.6122.0734 3.8492-.1327 1.3743-.2291 2.5729-.6637 3.982-.6637 1.4696 0 3.8155 1.3238 5.3093 1.4601z" fill="#5b85b3"/></g></svg>

<?xml version="1.0" encoding="UTF-8" standalone="no"?> <!-- Created with Vectornator for iOS (http://vectornator.io/) --><!DOCTYPE svg PUBLIC "-//W3C//DTD SVG 1.1//EN" "http://www.w3.org/Graphics/SVG/1.1/DTD/svg11.dtd">
<svg style="fill-rule:evenodd;clip-rule:evenodd;stroke-linecap:round;stroke-linejoin:round;" xmlns:vectornator="http://vectornator.io" xmlns:xlink="http://www.w3.org/1999/xlink" xmlns="http://www.w3.org/2000/svg" xml:space="preserve" version="1.1" viewBox="0 0 200 200">
<metadata>
<vectornator:setting key="DisplayWhiteBackground" value="0"/>
<vectornator:setting key="RulersVisible" value="1"/>
<vectornator:setting key="GridSpacing" value="36"/>
<vectornator:setting key="Units" value="Pixels"/>
<vectornator:setting key="New" value="1"/>
<vectornator:setting key="DynamicGuides" value="0"/>
<vectornator:setting key="SnapToPoints" value="0"/>
<vectornator:setting key="CMYKEnabledKey" value="0"/>
<vectornator:setting key="SnapToGrid" value="0"/>
<vectornator:setting key="SnapToGuides" value="1"/>
<vectornator:setting key="SnapToEdges" value="0"/>
</metadata>
<defs/>
<g id="Layer 3" vectornator:layerName="Layer 3">
<g opacity="1">
<path stroke="#000000" stroke-width="1" d="M99.088+71.2713C99.2863+71.4133+98.5639+74.1162+98.5098+74.4195C98.0988+76.7207+97.8208+78.9139+97.6103+81.2299C97.5997+81.3463+97.2141+82.7612+97.2248+82.7719C97.7956+83.3427+99.3314+83.2603+100.052+83.1574C100.239+83.1306+101.627+82.996+101.722+82.9004C101.934+82.6884+102.322+75.2318+102.365+74.805C102.384+74.6075+103.068+71.173+102.879+71.0786C102.777+71.0278+98.6884+70.9851+99.088+71.2713Z" fill="#b79516" stroke-linecap="butt" opacity="1" stroke-linejoin="round"/>
<path stroke="#000000" stroke-width="1" d="M89.7679+29.837C89.9004+29.4035+89.2467+30.5799+89.0135+30.9686C88.5106+31.8068+88.0077+32.645+87.5048+33.4832C86.2692+35.5425+85.1354+37.4223+84.1101+39.6439C82.9576+42.1409+80.8516+43.9305+79.5838+46.3075C79.0455+47.3169+78.7032+48.3084+77.9494+49.1993C76.1952+51.2724+73.1522+53.7168+72.6688+56.6173C72.4476+57.9445+74.8587+57.7401+75.5605+57.6231C78.1822+57.1861+80.4397+56.7395+83.1042+57.1202C83.5089+57.178+84.9884+56.9909+85.2416+57.4974C85.4338+57.8816+84.6003+63.8725+84.4873+64.6639C83.427+72.086+88.3453+76.5744+95.5514+75.8538C99.62+75.4469+108.392+73.1837+111.519+70.4474C112.839+69.2924+114.456+67.682+115.417+66.1727C117.269+63.2611+117.475+59.1667+117.805+55.8629C118.408+49.8324+118.965+43.4868+116.674+37.758C114.546+32.4373+105.557+25.5623+99.8262+25.5623C97.1599+25.5623+94.8956+26.9867+92.6596+28.3283C92.0227+28.7105+91.1596+29.433+90.3965+29.5856C90.0652+29.6518+89.3907+29.3734+89.3907+29.7113C89.3907+29.8438+89.7291+29.9638+89.7679+29.837Z" fill="#b79516" stroke-linecap="butt" opacity="1" stroke-linejoin="round"/>
<path stroke="#000000" stroke-width="1" d="M85.4672+32.2079C85.1625+32.3425+85.0292+31.6982+84.7605+31.5012C84.4626+31.2827+84.2229+31.8468+84.5035+32.0152C87.0435+33.5392+90.786+31.631+93.4984+33.3001C96.0031+34.8415+92.8983+36.1689+93.4984+37.6691C93.9431+38.7809+96.8677+37.9974+97.8673+38.5686C98.7173+39.0542+97.0516+40.7362+97.7388+41.6525C98.419+42.5595+100.785+42.4175+100.951+43.58C101.104+44.6492+99.6061+46.3495+100.18+47.3064C100.643+48.0783+101.771+47.8693+102.365+48.4629C102.749+48.8468+101.908+49.337+102.236+49.7479C102.651+50.2659+103.771+50.2469+104.035+50.7759C104.89+52.4859+101.375+53.3584+105.192+54.6308C105.974+54.8916+106.584+53.9012+106.862+53.3458C107.323+52.4247+107.22+51.4224+107.762+50.5189C108.29+49.6388+111.416+45.9896+111.874+47.8204C112.116+48.792+111.352+50.9337+111.103+51.9323C110.578+54.0307+111.668+56.6868+111.231+58.8712C110.93+60.3755+110.395+61.8353+110.203+63.3687C110.088+64.2908+110.424+65.1403+110.332+66.0671C110.207+67.3087+108.306+68.8825+109.047+70.1791C111.988+75.3271+120.382+69.9418+122.796+66.8381C128.302+59.7589+128.656+48.0921+126.265+39.725C125.768+37.9828+124.811+36.4856+124.081+34.8421C123.382+33.2694+122.814+31.482+121.768+30.0877C120.841+28.8514+119.575+28.2317+118.427+27.2607C115.985+25.1941+113.66+22.5278+110.846+20.9643C106.718+18.671+102.349+17.657+97.7388+17.2379C94.6241+16.9547+90.3271+15.4252+87.202+16.4669C83.7768+17.6086+78.8996+23.6057+79.8776+27.5177C80.4012+29.6124+81.5103+30.1331+83.2185+30.9872C83.6868+31.2213+86.2539+31.8606+85.4672+32.2079Z" fill="#61330d" stroke-linecap="butt" opacity="1" stroke-linejoin="round"/>
<path stroke="#000000" stroke-width="1" d="M86.688+58.7427C85.7757+58.7427+85.3469+57.605+84.2465+57.9718C83.6664+58.1651+83.4266+59.0095+82.833+59.1282C82.0102+59.2928+81.2129+59.0332+80.3916+59.3852C79.9187+59.5879+78.1097+62.0175+78.3356+62.4692C79.7171+65.2323+89.1461+64.5701+89.7719+61.4412C90.297+58.8157+84.5934+57.3229+83.2185+59.3852" fill="#61330d" stroke-linecap="butt" opacity="1" stroke-linejoin="round"/>
<path stroke="#000000" stroke-width="1" d="M81.5069+173.215C80.3818+174.125+78.46+175.569+77.0582+175.919C75.095+176.41+69.722+176.487+69.2074+179.06C68.8705+180.744+68.5837+184.611+70.2542+185.864C71.5071+186.803+73.7468+186.212+75.1391+186.212C79.6781+186.212+84.2272+184.293+88.9216+184.293C90.5175+184.293+98.2533+185.604+99.0403+184.817C101.864+181.993+100.476+178.777+99.9126+175.396C99.7955+174.693+99.9896+173.404+99.3892+172.953C98.3865+172.201+96.1897+172.604+95.0277+172.604C91.4807+172.604+83.9912+171.205+81.5069+173.215Z" fill="#360b00" stroke-linecap="butt" opacity="1" stroke-linejoin="round"/>
<path stroke="#000000" stroke-width="1" d="M107.218+171.367C107.961+172.269+110.434+171.694+111.626+171.588C114.597+171.326+117.084+171.002+119.833+170.111C124.064+168.741+124.445+172.81+127.281+173.361C131.962+174.271+136.177+171.251+140.809+173.952C142.98+175.218+143.573+176.397+143.241+178.974C142.883+181.762+139.342+182.809+136.857+183.11C135.03+183.332+133.434+184.42+131.537+184.588C128.902+184.82+125.823+185.352+123.177+185.031C122.051+184.894+120.682+184.696+119.529+184.883C117.49+185.213+113.725+186.609+111.778+185.474C110.952+184.992+111.02+183.419+110.866+182.667C110.334+180.084+108.128+178.227+107.674+175.577C107.422+174.108+107.066+172.506+107.066+170.998C107.066+170.865+107.132+171.263+107.218+171.367Z" fill="#360b00" stroke-linecap="butt" opacity="1" stroke-linejoin="round"/>
<path stroke="#000000" stroke-width="1" d="M79.9271+133.52C79.7341+143.364+81.017+153.556+79.8607+163.385C79.5253+166.236+79.7337+169.185+79.3298+172.012C79.2866+172.315+78.9324+173.606+79.1971+173.87C79.2125+173.886+84.4151+173.34+84.7718+173.34C88.7321+173.34+92.7725+172.975+96.7177+173.207C98.1237+173.289+101.062+174.021+102.425+173.34C102.953+173.076+102.49+170.106+102.558+169.49C102.818+167.15+102.823+164.689+102.823+162.323C102.823+161.503+102.985+160.474+102.823+159.668C102.785+159.474+102.558+159.137+102.558+159.137C102.558+159.137+102.76+159.75+102.823+160.066C103.085+161.375+103.36+162.739+103.753+164.048C104.214+165.586+104.623+171.555+105.611+172.543C107.152+174.085+116.505+171.203+118.088+170.95C120.224+170.608+122.283+170.154+124.459+170.154C124.686+170.154+126.596+170.524+126.715+170.287C127.166+169.386+126.848+167.529+126.848+166.57C126.848+162.539+126.566+158.63+126.184+154.624C125.715+149.695+124.826+144.045+123.264+139.36C122.691+137.641+121.599+136.078+120.875+134.449C120.316+133.192+119.913+131.097+118.884+130.069C118.163+129.348+113.532+129.538+112.513+129.538C106.635+129.538+100.785+130.431+94.9922+131.396C91.648+131.953+88.2213+132.171+84.9046+132.723C83.0018+133.041+79.9701+131.326+79.9271+133.52Z" fill="#052b44" stroke-linecap="butt" opacity="1" stroke-linejoin="round"/>
<path stroke="#000000" stroke-width="1" d="M64.2868+117.782C62.0391+118.663+58.8841+122.693+60.1102+125.23C60.9264+126.919+63.1246+126.587+64.3646+125.987C64.7408+125.806+65.2178+125.418+65.4865+125.12C65.6522+124.936+66.23+124.591+65.9836+124.569C65.6181+124.536+64.6339+125.694+64.3713+125.913C63.885+126.319+62.9799+126.049+62.5368+126.418C62.1291+126.758+60.7948+130.617+60.9933+131.123C61.7229+132.985+68.7601+134.966+70.383+133.612C73.2124+131.252+73.5147+128.653+73.8333+125.129C73.9187+124.186+74.5866+119.864+74.3615+119.289" fill="#b79516" stroke-linecap="butt" opacity="1" stroke-linejoin="round"/>
<path stroke="#000000" stroke-width="1" d="M134.593+116.177C136.413+116.89+138.966+120.153+137.974+122.206C137.313+123.573+135.534+123.304+134.53+122.819C134.226+122.672+133.84+122.358+133.622+122.117C133.488+121.968+133.021+121.689+133.22+121.671C133.516+121.644+134.313+122.582+134.525+122.759C134.919+123.087+135.651+122.869+136.01+123.168C136.34+123.443+137.42+126.566+137.259+126.976C136.669+128.483+130.973+130.086+129.659+128.991C127.369+127.08+127.124+124.976+126.867+122.125C126.797+121.361+126.257+117.862+126.439+117.397" fill="#b79516" stroke-linecap="butt" opacity="1" stroke-linejoin="round"/>
<path stroke="#000000" stroke-width="1" d="M96.9832+81.356C98.4525+81.49+98.7421+81.9333+100.302+81.6214C101.142+81.4534+101.515+80.5785+102.425+80.4268C106.024+79.8271+110.814+79.949+114.238+81.0905C119.875+82.9693+122.735+86.4033+125.388+91.7091C126.037+93.0077+126.147+95.111+126.981+96.222C127.182+96.4902+127.792+96.6355+128.043+96.8857C128.926+97.769+129.135+99.5813+129.901+100.602C132.437+103.984+133.64+108.49+135.21+112.415C135.557+113.284+136.223+114.293+136.405+115.203C136.842+117.389+127.655+120.486+126.45+119.583C125.604+118.949+124.973+117.708+124.193+116.928C123.602+116.337+122.661+115.926+122.07+115.335C120.066+113.332+118.441+110.911+116.495+108.964C115.657+108.127+114.873+107.101+114.238+106.044C114.166+105.924+113.948+105.115+113.84+105.115C113.668+105.115+114.425+107.402+114.504+107.637C114.974+109.047+115.104+110.499+115.566+111.884C117.073+116.405+118.772+121.033+119.548+125.689C119.712+126.676+120.611+129.182+120.079+130.069C119.189+131.552+111.857+133.58+110.256+134.051C100.665+136.872+86.7937+136.24+77.3388+132.458C75.9308+131.895+76.3835+127.465+76.5424+126.352C77.3482+120.712+79.6096+114.762+81.4535+109.23C82.0892+107.323+82.6801+105.417+83.3118+103.522C83.4984+102.962+84.3003+101.797+83.71+101.797C82.6533+101.797+81.5837+105.12+81.1881+105.911C79.5822+109.123+78.3336+112.617+77.2061+115.999C76.8423+117.09+76.8125+119.578+76.0115+120.379C75.3716+121.019+73.55+120.54+72.8259+120.379C70.145+119.784+67.4705+119.432+64.862+118.388C64.3856+118.198+61.6764+118.141+61.6764+117.459C61.6764+116.53+62.5529+115.52+62.871+114.672C63.5889+112.757+64.1399+110.89+64.862+108.964C65.8937+106.213+67.8652+103.688+68.7112+100.868C70.2795+95.6401+72.1353+86.7876+77.2061+83.7452C79.1355+82.5875+81.6426+81.1323+83.8427+80.6923C85.1261+80.4356+86.4549+80.7657+87.6919+80.5596C89.0662+80.3305+90.2648+79.8959+91.6739+79.8959C93.1435+79.8959+95.4894+81.2197+96.9832+81.356Z" fill="#5b85b3" stroke-linecap="butt" opacity="1" stroke-linejoin="round"/>
</g>
</g>
</svg>
